X:2393
T:Cackling of the Hens
B:Walsh
M:4/4
L:1/8
N:
K:D
d2 A2 defg| a2 gf efde| A3 A dcde| fgfg g3 g | a4 agfa| gfeg fede| A4 dcde|\
fagf e4| d8::~d2 ~d2 ~d2 ~d~d|f3 a ~d2 ~d~d2 |f3 a defg|f3 a ~d2 ~d2|\
b g3 ~d2 ~d~d|f3 a ~d2 ~d~d|b g3 ~d2 ~d~d|f3 a ~d2 ~d~d|a4 agfa|gfeg fede|\
A3 A d2 de|fagf e2|d8:|


